X:1
T:James Gibb editions
T:Il tormentato - Gastoldi
%%score [ 1 2 3 ]
L:1/8
Q:1/4=108
M:2/2
K:C
V:1 treble nm="Soprano" snm="S"
V:2 treble nm="Alto" snm="A"
V:3 bass nm="Bass" snm="B"
V:1
"^Il tormentato""^Giovanni Gastoldi\n(1560-1609)" z2 BB | B2 c2 B2 A2 | ^G4 z2 AB | c2 B2 c2 d2 | %4
w: Non mi|dar tan- to mar-|tir Ch'io no'l|pos- so più sof-|
w: Non mi|dar tan- to mar-|tel Che no'l|mer- ta~un cor fe-|
 c4 :| z2 cc |[M:2/2] c2 c2 c2 B2 | A2 A2 z2 dd | c2 B2 A2 A2 | B2 B2 |: z2 BB | c2 c2 d2 d2 | %12
w: frir|Den- tro~e|fuo- ri~in o- gni|lo- co, Tut- to~or-|mai son fiam- me~~e|fo- co;|E di|me pie- tà non|
w: del.|Pren- di~or-|mai di me pie-|ta- de; Non mi|far più cru- del-|ta- de;|Ma tu|sor- da~a' miei la-|
 e2 e2 z2 ee | d2 e2 d2 c2 | (B3 c d2 cB | A2 G2 A4) | B4 :| %17
w: sen- ti, Ma mi|dai no- vi tor-|men\- * * * *||ti.|
w: men- ti Più mi|dai no- vi tor-|men\- * * * *||ti.|
V:2
 z2 dd | d2 e2 d2 c2 | B4 z2 cB | A2 ^G2 A2 B2 | c4 :| z2 AA |[M:2/2] A2 G2 A2 G2 | ^F2 F2 z2 GG | %8
w: Non mi|dar tan- to mar-|tir Ch'io no'l|pos- so più sof-|frir|Den- tro~e|fuo- ri~in o- gni|lo- co, Tut- to~or-|
w: Non mi|dar tan- to mar-|tel Che no'l|mer- ta~un cor fe-|del.|Pren- di~or-|mai di me pie-|ta- de; Non mi|
 E2 G2 G2 ^F2 | G2 G2 |: z2 GG | A2 c2 c2 B2 | c2 c2 z2 cc | B2 c2 B2 A2 | (G3 A B2 AG | %15
w: mai son fiam- me~~e|fo- co;|E di|me pie- tà non|sen- ti, Ma mi|dai no- vi tor-|men\- * * * *|
w: far più cru- del-|ta- de;|Ma tu|sor- da~a' miei la-|men- ti Più mi|dai no- vi tor-|men\- * * * *|
 ^F2 G4 F2) | G4 :| %17
w: |ti.|
w: |ti.|
V:3
 z2 G,G, | G,2 C,2 G,2 A,2 | E,4 z2 A,^G, | A,2 E,2 A,2 G,2 | C,4 :| z2 F,F, | %6
w: Non mi|dar tan- to mar-|tir Ch'io no'l|pos- so più sof-|frir|Den- tro~e|
w: Non mi|dar tan- to mar-|tel Che no'l|mer- ta~un cor fe-|del.|Pren- di~or-|
[M:2/2] F,2 E,2 F,2 G,2 | D,2 D,2 z2 G,,G,, | A,,2 B,,2 C,2 D,2 | G,,2 G,,2 |: z2 G,G, | %11
w: fuo- ri~in o- gni|lo- co, Tut- to~or-|mai son fiam- me~~e|fo- co;|E di|
w: mai di me pie-|ta- de; Non mi|far più cru- del-|ta- de;|Ma tu|
 F,2 E,2 F,2 G,2 | C,2 C,2 z2 C,C, | G,4 G,4- | G,2 G,2 G,4 | D,8 | G,,4 :| %17
w: me pie- tà non|sen- ti, Ma mi|dai no\-|* vi tor-|men-|ti.|
w: sor- da~a' miei la-|men- ti Più mi|dai no\-|* vi tor-|men-|ti.|

